svg/fluentui-system-icons/ic_fluent_number_circle_2_24_filled.svg

<svg width="24" height="24" viewBox="0 0 24 24" fill="none" xmlns="http://www.w3.org/2000/svg">
<path d="M22 12C22 17.5228 17.5228 22 12 22C6.47715 22 2 17.5228 2 12C2 6.47715 6.47715 2 12 2C17.5228 2 22 6.47715 22 12ZM10.3513 8.95093C10.3543 8.94713 10.3606 8.93927 10.3701 8.92792C10.3892 8.90515 10.4208 8.86874 10.4644 8.82317C10.5522 8.73138 10.6848 8.6063 10.8564 8.48129C11.2026 8.22919 11.6753 8 12.2495 8C13.2159 8 13.9993 8.78342 13.9995 9.75012C13.9996 10.2843 13.8051 10.6124 13.472 10.9067C13.1523 11.1891 12.7459 11.409 12.232 11.6872C12.1224 11.7464 12.008 11.8084 11.8885 11.8741C11.255 12.2225 10.5185 12.6625 9.95183 13.3519C9.3644 14.0666 9 14.9963 9 16.25C9 16.6642 9.33579 17 9.75 17H14.75C15.1642 17 15.5 16.6642 15.5 16.25C15.5 15.8358 15.1642 15.5 14.75 15.5H10.5654C10.664 14.9798 10.8654 14.6028 11.1107 14.3043C11.4815 13.8531 11.9949 13.5275 12.6114 13.1884C12.7028 13.1381 12.7984 13.0867 12.8969 13.0337C13.412 12.7567 14.0037 12.4384 14.4651 12.0308C15.0693 11.497 15.4997 10.7782 15.4995 9.74988C15.4992 7.95516 14.0445 6.5 12.2495 6.5C11.2617 6.5 10.4855 6.89581 9.97346 7.26871C9.71599 7.4562 9.517 7.64362 9.38058 7.78621C9.31206 7.85783 9.25843 7.91907 9.22024 7.96466C9.19725 7.9921 9.17465 8.01991 9.15306 8.04847L9.15222 8.04959L9.15147 8.05059C8.90326 8.3822 8.97088 8.85224 9.3025 9.10044C9.63289 9.34773 10.1007 9.28151 10.3496 8.95303L10.3513 8.95093ZM10.3496 8.95303L10.352 8.94987Z" fill="#212121"/>
</svg>

<svg xmlns="http://www.w3.org/2000/svg" width="24" height="24"><path d="M22 12c0 5.523-4.477 10-10 10S2 17.523 2 12 6.477 2 12 2s10 4.477 10 10ZM10.351 8.95l.02-.022a2.962 2.962 0 0 1 .486-.447c.346-.252.818-.481 1.392-.481.967 0 1.75.783 1.75 1.75 0 .534-.194.862-.527 1.157-.32.282-.726.502-1.24.78l-.343.187c-.634.348-1.37.788-1.937 1.478C9.364 14.067 9 14.996 9 16.25c0 .414.336.75.75.75h5a.75.75 0 0 0 0-1.5h-4.185c.099-.52.3-.897.546-1.196.37-.45.884-.777 1.5-1.116l.286-.154c.515-.277 1.107-.596 1.568-1.003.604-.534 1.035-1.253 1.034-2.281a3.25 3.25 0 0 0-3.25-3.25c-.987 0-1.764.396-2.276.769a4.459 4.459 0 0 0-.753.696 2.145 2.145 0 0 0-.067.083v.002H9.15a.75.75 0 0 0 1.199.903l.001-.002Zm-.001.003.002-.003Z"/></svg>
